svg/justvector/pingchat.svg

<svg xmlns="http://www.w3.org/2000/svg" viewBox="0 0 100 100" enable-background="new 0 0 100 100"><path d="m31.06 69.18h27.06c0 14.536-12.12 26.319-27.06 26.319-14.947 0-27.06-11.783-27.06-26.319 0-14.537 12.12-26.32 27.06-26.32v26.32m62.937-37.775c0 14.31-11.928 25.907-26.641 25.907h-26.636v-27.25h.032c.721-13.683 12.356-24.562 26.604-24.562 14.713 0 26.641 11.6 26.641 25.906m-22.713 12.9c0-2.167-1.807-3.923-4.03-3.923-2.227 0-4.03 1.756-4.03 3.923 0 2.166 1.805 3.922 4.03 3.922 2.228 0 4.03-1.756 4.03-3.922m0-26.07c0-2.166-1.807-3.921-4.03-3.921-2.227 0-4.03 1.755-4.03 3.921 0 .167.014.33.035.49l1.102 15.498c0 1.555 1.298 2.816 2.895 2.816 1.6 0 2.898-1.262 2.898-2.816l1.102-15.498c.02-.16.034-.323.034-.49"/></svg>

<?xml version="1.0" encoding="iso-8859-1"?>
<!-- Generator: Adobe Illustrator 15.0.0, SVG Export Plug-In . SVG Version: 6.00 Build 0)  -->
<!DOCTYPE svg PUBLIC "-//W3C//DTD SVG 1.1//EN" "http://www.w3.org/Graphics/SVG/1.1/DTD/svg11.dtd">
<svg version="1.1" id="Layer_1" xmlns="http://www.w3.org/2000/svg" xmlns:xlink="http://www.w3.org/1999/xlink" x="0px" y="0px"
	 width="100px" height="100px" viewBox="0 0 100 100" style="enable-background:new 0 0 100 100;" xml:space="preserve">
<path id="PingChat" d="M31.063,69.181h27.064c0,14.536-12.118,26.319-27.064,26.319C16.116,95.5,4,83.717,4,69.181
	c0-14.537,12.116-26.32,27.063-26.32V69.181z M94,31.406c0,14.31-11.928,25.907-26.641,25.907H40.723V30.062h0.032
	C41.476,16.379,53.111,5.5,67.359,5.5C82.072,5.5,94,17.1,94,31.406z M71.287,44.306c0-2.167-1.807-3.923-4.035-3.923
	c-2.227,0-4.031,1.756-4.031,3.923c0,2.166,1.805,3.922,4.031,3.922C69.48,48.228,71.287,46.472,71.287,44.306z M71.287,18.235
	c0-2.166-1.807-3.921-4.035-3.921c-2.227,0-4.031,1.755-4.031,3.921c0,0.167,0.014,0.33,0.035,0.49l1.102,15.498
	c0,1.555,1.298,2.816,2.895,2.816c1.6,0,2.898-1.262,2.898-2.816l1.102-15.498C71.273,18.565,71.287,18.402,71.287,18.235z"/>
</svg>
